X:1
T:Plange quasi virgo - Viadana
T:James Gibb editions
T:#
%%score [ 1 2 3 4 ]
L:1/8
Q:1/4=200
M:none
K:F
V:1 treble nm="Soprano" snm="S"
V:2 treble nm="Alto" snm="A"
V:3 treble-8 nm="Tenor" snm="T"
V:4 bass nm="Bass" snm="B"
V:1
 z8"^Plange quasi virgo""^Ludovico da Viadana\n(1560-1627)" (G8- | G4 ^F2 E2) F4 G4 | A4 A4 G4 B4 | %3
w: Plan\-|* * * ge qua-|si vir- go, plebs|
 (B4 A4) B4 B4- | B2 B2 G4 A4 A4 | G8 A4 A4 | G6 G2 G4 G4- | G4 ^F4 G6 G2 | ^F8 || G8 | %10
w: me\- * a: u\-|* lu- la- te pa-|sto- res in|ci- ne- re et|* ci- li- ci-|o:|Qui-|
 G4 A6 A2 A4 | B4 B4 A6 A2 | B8 z8 | z16 | z8 z4 G4- | G4 A4 A4 G4 | G12 G4 | G8 G16 || B16 | %19
w: a ve- ni- et|di- es Do- mi-|ni||ma\-|* gna, et a-|ma- ra|val- de.|Accingite~vos~sacerdotes~et~plangite~mi-|
 A8 G4 G4 | A8 B8 | G16 | G12 ^F4 | G16 || G8 | G4 A6 A2 A4 | B4 B4 A6 A2 | B8 z8 | z16 | %29
w: ni- stri al-|ta- ris,|aspergite~vos|ci- ne-|re.|Qui-|a ve- ni- et|di- es Do- mi-|ni||
 z8 z4[Q:1/4=198] G4- |[Q:1/4=196] G4[Q:1/4=194] A4[Q:1/4=192] A4[Q:1/4=190] G4 | %31
w: ma\-|* gna, et a-|
[Q:1/4=186] G12[Q:1/4=182] G4 |[Q:1/4=179] G8[Q:1/4=173] G16 |] %33
w: ma- ra|val- de.|
V:2
 D16- | D8 D4 D4 | F4 F4 _E4 F4 | F8 F4 F4- | F2 F2 D4 E4 F4 | (D4 E4) F4 F4 | D6 D2 _E4 D4- | %7
w: Plan\-|* ge qua-|si vir- go, plebs|me- a: u\-|* lu- la- te pa-|sto\- * res in|ci- ne- re et|
 D4 D4 B,6 C2 | D8 || D8 | E4 F6 F2 F4 | G4 G4 F6 F2 | F8 F4 E4 | D8 C4 D4- | D4 C4 D8 | %15
w: * ci- li- ci-|o:|Qui-|a ve- ni- et|di- es Do- mi-|ni ma- gna,|et a- ma\-|* ra val-|
 D4 F4 F4 _E4- | E4 _E4 E4 D4 | _E8 D16 || F16 | F8 D4 D4 | F8 F8 | _E16 | (_E8 D6) D2 | D16 || %24
w: de, ma- gna, et|* a- ma- ra|val- de.|Accingite~vos~sacerdotes~et~plangite~mi-|ni- stri al-|ta- ris,|aspergite~vos|ci\- * ne-|re.|
 D8 | E4 F6 F2 F4 | G4 G4 F6 F2 | F8 F4 E4 | D8 C4 D4- | D4 C4 D8 | D4 F4 F4 _E4- | E4 _E4 E4 D4 | %32
w: Qui-|a ve- ni- et|di- es Do- mi-|ni ma- gna,|et a- ma\-|* ra val-|de, ma- gna, et|* a- ma- ra|
 _E8 D16 |] %33
w: val- de.|
V:3
 B16 | A8 z4 B4 | c4 d4 B4 d4 | c8 B4 d4- | d2 d2 d4 c4 c4 | B8 c4 d4 | =B6 B2 c4 _B4- | %7
w: Plan-|ge qua-|si vir- go, plebs|me- a: u\-|* lu- la- te pa-|sto- res in|ci- ne- re et|
 B4 A4 G6 G2 | A8 || B8 | c4 c6 c2 d4 | d4 _e4 c6 c2 | d4 d4 c4 B4- | B4 A4 G4 F4 | G8 A4 B4- | %15
w: * ci- li- ci-|o:|Qui-|a ve- ni- et|di- es Do- mi-|ni ma- gna, et|* a- ma- ra|val- de, ma\-|
 B4 c4 c8 | B8 c4 d4 | c8 =B16 || d16 | c8 B4 B4 | c8 d8 | B16 | (c8 A6) A2 | G16 || B8 | %25
w: * gna, et|a- ma- ra|val- de.|Accingite~vos~sacerdotes~et~plangite~mi-|ni- stri al-|ta- ris,|aspergite~vos|ci\- * ne-|re.|Qui-|
 c4 c6 c2 d4 | d4 _e4 c6 c2 | d4 d4 c4 B4- | B4 A4 G4 F4 | G8 A4 B4- | B4 c4 c8 | B8 c4 d4 | %32
w: a ve- ni- et|di- es Do- mi-|ni ma- gna, et|* a- ma- ra|val- de, ma\-|* gna, et|a- ma- ra|
 c8 =B16 |] %33
w: val- de.|
V:4
 G,16 | D,8 z4 G,4 | F,4 D,4 _E,4 B,,4 | F,8 B,,4 B,4- | B,2 B,2 B,4 A,4 F,4 | G,8 F,4 D,4 | %6
w: Plan-|ge qua-|si vir- go, plebs|me- a: u\-|* lu- la- te pa-|sto- res in|
 G,6 G,2 C,4 G,4- | G,4 D,4 _E,6 E,2 | D,8 || G,8 | C,4 F,6 F,2 D,4 | G,4 _E,4 F,6 F,2 | %12
w: ci- ne- re et|* ci- li- ci-|o:|Qui-|a ve- ni- et|di- es Do- mi-|
 B,,4 B,4 A,4 G,4- | G,4 F,4 _E,4 D,4 | _E,8 D,4 G,4- | G,4 F,4 F,4 C,4 | (_E,6 D,2 C,4) =B,,4 | %17
w: ni ma- gna, et|* a- ma- ra|val- de, ma\-|* gna, et a-|ma\- * * ra|
 C,8 G,,16 || B,,16 | F,8 G,4 G,4 | F,8 B,,8 | _E,16 | (C,8 D,6) D,2 | G,,16 || G,8 | %25
w: val- de.|Accingite~vos~sacerdotes~et~plangite~mi-|ni- stri al-|ta- ris,|aspergite~vos|ci\- * ne-|re.|Qui-|
 C,4 F,6 F,2 D,4 | G,4 _E,4 F,6 F,2 | B,,4 B,4 A,4 G,4- | G,4 F,4 _E,4 D,4 | _E,8 D,4 G,4- | %30
w: a ve- ni- et|di- es Do- mi-|ni ma- gna, et|* a- ma- ra|val- de, ma\-|
 G,4 F,4 F,4 C,4 | (_E,6 D,2 C,4) =B,,4 | C,8 G,,16 |] %33
w: * gna, et a-|ma\- * * ra|val- de.|

